X: 36
T: Acırım Âşık Olup da Yanana
C: Giriftzen Asım Bey
O: Turkey
F: http://compmusic.upf.edu/node/140
N: mahur--sarki--aksak--acirim_asik--giriftzen_asim_bey
N: makam= mahur
N: form= sarki
N: usul= aksak = 9/8
M: 9/8
L: 1/16
K: C ^9/8f   
Q: 1/4=120
%%MIDI tuningsystem comma53
z2gf e2f2 g8-g2 | a3gg3ff3ee2 f2a2  | \
w:  A *  cı *  rım   |  â  | 
g3f e2g2 f3e d4 =f2 | 
w:  *  *  şık_ o lup   | 
e3dd=f edd8-d2  | efed e2f2 g2a2 b2a2 g2 | \
w:  da   |  ya   | 
ac' baag gfg8-g2  | 
w:  ya *  *  *  na *  *  *  na    | 
z2d4a2 g2=f2 e4 d2 | de dcd2 e2g2 =f2e4d2  | \
w:  Gü le rim   |  hic   | 
dedc d2e2 d2c2 B4 e2 | 
w:  hicr_ *  *  *  i le  gir  | 
d2 c2B2 A2G4e2 d2^c2  | _7/8B3A AGGF GAB^c d6 | \
w:  yân   |  *  *  o *  la *  na   SAZ  | 
z2 d4 a2g2 =f2e4d2  | 
w:  Gü le rim   | 
dedc d2e2 g2=f2 e4 d2 | de dcd2 e2d2 c2B4e2  | \
w:  hic   |  hicr_ *  *  *  i le  gir  | 
d2c2 B2A2 G4 e2d2 ^c2 | 
w:  yân   | 
^c_7/8B BAAG GFG4d'c' b^ab2  | z2g4c'2 b8-b2 | \
w:  *  *  *  *  o *  la *  na   SAZ  |  Bu nu  bir   | 
c'3ba2 c'2b3ag4b2  | 
w:  hiss_ *  i  me zi  | 
a3g f2a2 g2f2 e4 fe | d4e2 f2g2 a2b2 c'2d'2  | \
w:  yet   |  *  sa  | 
b3a abag g3c' b^ab4 | 
w:  *  *  *  *  ya *  na   SAZ  | 
z2 g4 c'2b8-b2  | c'3b a2c'2 b3a g4 b2 | \
w:  Bu nu  bir   |  hiss_ *  i  me zi  | 
a3gf2 a2g2 f2e4fe  | 
w:  yet   | 
d4 e2f2 g2a2 b2c'2 d'2 | b3aab agg8-g2  | \
w:  *  sa  |  *  *  *  *  ya *  na    | 
z2d4a2 g2=f2 e4 d2 | 
w:  Gü le rim   | 
de dcd2 e2g2 =f2e4d2  | dedc d2e2 d2c2 B4 e2 | \
w:  hic   |  hicr_ *  *  *  i le  gir  | 
d2 c2B2 A2G4e2 d2^c2  | 
w:  yân   | 
_7/8B3A AGGF GAB^c d6 | z2 d4 a2g2 =f2e4d2  | \
w:  *  *  o *  la *  na   SAZ  |  Gü le rim   | 
dedc d2e2 g2=f2 e4 d2 | 
w:  hic   | 
de dcd2 e2d2 c2B4e2  | d2c2 B2A2 G4 e2d2 ^c2 | \
w:  hicr_ *  *  *  i le  gir  |  yân   | 
^c_7/8B BAAG GFG4|
w:  *  *  *  *  o *  la *  na    | 


